X:1
T: Mr. James Wattie (Bellabeg)
C:Alexander Walker
R:Strathspey
Q: 128
K:G
M:4/4
L:1/16
|:D2|GG,3 B,3D G6 B2|AA,3 C3E A6 c2|BG3 Bd3 g3a b3a|ge3 d3c BG3 G2D2|
GG,3 B,3D G6 B2|AA,3 C3E A6 c2|BG3 Bd3 g3a b3a|ge3 d3c BG3 G2d2|
g3b a3b g3a e3g|dB3 B3A GE3 E3d|g3b a3b G3A B3A|G3E DG3 B,G,3 G,3d|
g3b a3b g3a e3g|dB3 B3A GE3 E3F|G3B A3c Bd3 b3a|ge3 d3c BG3 G2:|
